frontend/public/Images/Business/p5_percent.svg

<svg width="71" height="30" viewBox="0 0 71 30" fill="none" xmlns="http://www.w3.org/2000/svg">
<path d="M20.2491 6.64C20.2491 8 19.9557 9.17333 19.3691 10.16C18.7824 11.12 18.0091 11.92 17.0491 12.56C16.1157 13.1733 15.0757 13.64 13.9291 13.96V14.08C16.2224 14.3467 17.9824 15.04 19.2091 16.16C20.4624 17.2533 21.0891 18.8133 21.0891 20.84C21.0891 22.3867 20.6624 23.8133 19.8091 25.12C18.9824 26.4267 17.6891 27.4667 15.9291 28.24C14.1957 29.0133 11.9424 29.4 9.16906 29.4C7.32906 29.4 5.75573 29.2667 4.44906 29C3.1424 28.7067 1.87573 28.32 0.649063 27.84V21.44C1.9024 22.08 3.1824 22.56 4.48906 22.88C5.79573 23.1733 6.9824 23.32 8.04906 23.32C9.9424 23.32 11.2224 23.0533 11.8891 22.52C12.5824 21.9867 12.9291 21.2667 12.9291 20.36C12.9291 19.72 12.7557 19.1733 12.4091 18.72C12.0891 18.24 11.4891 17.88 10.6091 17.64C9.75573 17.4 8.5024 17.28 6.84906 17.28H5.08906V11.48H6.88906C9.07573 11.48 10.5957 11.2 11.4491 10.64C12.3291 10.08 12.7691 9.36 12.7691 8.48C12.7691 7.70667 12.4757 7.14667 11.8891 6.8C11.3024 6.42667 10.5291 6.24 9.56906 6.24C8.71573 6.24 7.9024 6.36 7.12906 6.6C6.3824 6.84 5.72906 7.10667 5.16906 7.4C4.60906 7.66667 4.1824 7.89333 3.88906 8.08L0.689063 2.92C1.8624 2.12 3.20906 1.44 4.72906 0.88C6.27573 0.319999 8.28906 0.0399985 10.7691 0.0399985C13.7024 0.0399985 16.0091 0.626666 17.6891 1.8C19.3957 2.97333 20.2491 4.58667 20.2491 6.64ZM44.7666 14.76C44.7666 17.8 44.4332 20.4133 43.7666 22.6C43.1266 24.7867 42.0466 26.4667 40.5266 27.64C39.0332 28.8133 37.0066 29.4 34.4466 29.4C30.8732 29.4 28.2599 28.1067 26.6066 25.52C24.9532 22.9333 24.1266 19.3467 24.1266 14.76C24.1266 11.6667 24.4466 9.02667 25.0866 6.84C25.7532 4.65333 26.8466 2.97333 28.3666 1.8C29.8866 0.626666 31.9132 0.0399985 34.4466 0.0399985C38.0199 0.0399985 40.6332 1.33333 42.2866 3.92C43.9399 6.50667 44.7666 10.12 44.7666 14.76ZM31.8066 14.76C31.8066 17.56 31.9799 19.68 32.3266 21.12C32.6732 22.5333 33.3799 23.24 34.4466 23.24C35.5132 23.24 36.2199 22.5333 36.5666 21.12C36.9132 19.7067 37.0866 17.5867 37.0866 14.76C37.0866 11.9333 36.9132 9.8 36.5666 8.36C36.2199 6.92 35.5132 6.2 34.4466 6.2C33.3799 6.2 32.6732 6.92 32.3266 8.36C31.9799 9.8 31.8066 11.9333 31.8066 14.76ZM52.0441 7.28C53.5841 7.28 54.7441 7.87 55.5241 9.05C56.3241 10.21 56.7241 11.85 56.7241 13.97C56.7241 16.09 56.3441 17.75 55.5841 18.95C54.8441 20.13 53.6641 20.72 52.0441 20.72C50.5641 20.72 49.4341 20.13 48.6541 18.95C47.8741 17.75 47.4841 16.09 47.4841 13.97C47.4841 11.85 47.8441 10.21 48.5641 9.05C49.3041 7.87 50.4641 7.28 52.0441 7.28ZM66.2041 7.58L54.3241 29H51.6541L63.5341 7.58H66.2041ZM52.0441 9.5C50.7441 9.5 50.0941 10.99 50.0941 13.97C50.0941 16.99 50.7441 18.5 52.0441 18.5C53.4241 18.5 54.1141 16.99 54.1141 13.97C54.1141 10.99 53.4241 9.5 52.0441 9.5ZM65.7241 15.86C67.2441 15.86 68.4041 16.45 69.2041 17.63C70.0041 18.79 70.4041 20.43 70.4041 22.55C70.4041 24.65 70.0241 26.3 69.2641 27.5C68.5241 28.7 67.3441 29.3 65.7241 29.3C64.2241 29.3 63.0841 28.7 62.3041 27.5C61.5241 26.3 61.1341 24.65 61.1341 22.55C61.1341 20.43 61.4941 18.79 62.2141 17.63C62.9541 16.45 64.1241 15.86 65.7241 15.86ZM65.7241 18.08C64.4241 18.08 63.7741 19.57 63.7741 22.55C63.7741 25.55 64.4241 27.05 65.7241 27.05C67.0841 27.05 67.7641 25.55 67.7641 22.55C67.7641 19.57 67.0841 18.08 65.7241 18.08Z" fill="white"/>
</svg>

<svg width="71" height="30" fill="none" xmlns="http://www.w3.org/2000/svg"><path d="M20.25 6.64c0 1.36-.294 2.533-.88 3.52a7.66 7.66 0 01-2.32 2.4 11.048 11.048 0 01-3.12 1.4v.12c2.292.267 4.052.96 5.28 2.08 1.252 1.093 1.88 2.653 1.88 4.68a7.672 7.672 0 01-1.28 4.28c-.828 1.307-2.12 2.347-3.88 3.12-1.734.773-3.988 1.16-6.76 1.16-1.84 0-3.414-.133-4.72-.4a26.096 26.096 0 01-3.8-1.16v-6.4c1.252.64 2.532 1.12 3.84 1.44 1.306.293 2.492.44 3.56.44 1.892 0 3.172-.267 3.84-.8.692-.533 1.04-1.253 1.04-2.16 0-.64-.174-1.187-.52-1.64-.32-.48-.92-.84-1.8-1.08-.854-.24-2.108-.36-3.76-.36H5.09v-5.8h1.8c2.186 0 3.706-.28 4.56-.84.88-.56 1.32-1.28 1.32-2.16 0-.773-.294-1.333-.88-1.68-.588-.373-1.36-.56-2.32-.56-.854 0-1.668.12-2.44.36-.748.24-1.4.507-1.96.8-.56.267-.988.493-1.28.68L.69 2.92c1.172-.8 2.52-1.48 4.04-2.04C6.275.32 8.29.04 10.77.04c2.932 0 5.24.587 6.92 1.76 1.706 1.173 2.56 2.787 2.56 4.84zm24.517 8.12c0 3.04-.334 5.653-1 7.84-.64 2.187-1.72 3.867-3.24 5.04-1.494 1.173-3.52 1.76-6.08 1.76-3.574 0-6.187-1.293-7.84-3.88-1.654-2.587-2.48-6.173-2.48-10.76 0-3.093.32-5.733.96-7.92.666-2.187 1.76-3.867 3.28-5.04C29.887.627 31.913.04 34.447.04c3.573 0 6.186 1.293 7.84 3.88 1.653 2.587 2.48 6.2 2.48 10.84zm-12.96 0c0 2.8.173 4.92.52 6.36.346 1.413 1.053 2.12 2.12 2.12 1.066 0 1.773-.707 2.12-2.12.346-1.413.52-3.533.52-6.36 0-2.827-.174-4.96-.52-6.4-.347-1.44-1.054-2.16-2.12-2.16-1.067 0-1.774.72-2.12 2.16-.347 1.44-.52 3.573-.52 6.4zm20.237-7.48c1.54 0 2.7.59 3.48 1.77.8 1.16 1.2 2.8 1.2 4.92s-.38 3.78-1.14 4.98c-.74 1.18-1.92 1.77-3.54 1.77-1.48 0-2.61-.59-3.39-1.77-.78-1.2-1.17-2.86-1.17-4.98 0-2.12.36-3.76 1.08-4.92.74-1.18 1.9-1.77 3.48-1.77zm14.16.3L54.324 29h-2.67l11.88-21.42h2.67zM52.044 9.5c-1.3 0-1.95 1.49-1.95 4.47 0 3.02.65 4.53 1.95 4.53 1.38 0 2.07-1.51 2.07-4.53 0-2.98-.69-4.47-2.07-4.47zm13.68 6.36c1.52 0 2.68.59 3.48 1.77.8 1.16 1.2 2.8 1.2 4.92 0 2.1-.38 3.75-1.14 4.95-.74 1.2-1.92 1.8-3.54 1.8-1.5 0-2.64-.6-3.42-1.8-.78-1.2-1.17-2.85-1.17-4.95 0-2.12.36-3.76 1.08-4.92.74-1.18 1.91-1.77 3.51-1.77zm0 2.22c-1.3 0-1.95 1.49-1.95 4.47 0 3 .65 4.5 1.95 4.5 1.36 0 2.04-1.5 2.04-4.5 0-2.98-.68-4.47-2.04-4.47z" fill="#fff"/></svg>
